X:2
T:Paidushko horo
R:paidushko horo
O:Bulgaria
M:5/8
L:1/8
K:Am
AB c2d | ed c2B | AE A2E | AB c2B |
AB c2d | ed c2B | AE AcB | A2 A3 :|
|: de e2d | ga e2A | dA d2A | ed c3 :|
|: d2 d2A | ed c2B | A2 A2G | AB cBc |
d2 d2A | ed c2B | A2 AcB | A2 A3 :|
|: de e2d | ga e2A | dA d2A | ed c3 :|
|: d2 d2A | ed c2B | A2 A2G | AB cBc |
d2 d2A | ed c2B | A2 AcB | A2 A3 :|
|: ^fg gfg | a2 g=fe | f2 fed | de edc :|
|: ef fed | de edc | de c2B | AB cde |
f2 fed | e2 edc | de c2B | A2 A3 :|
|: ^fg gfg | a2 g=fe | f2 fed | de edc :|
|: ef fed | de edc | de c2B | AB cde |
f2 fed | e2 edc | de c2B | A2 A3 :|

